assets/icons/standard/service_report.svg

<svg xmlns="http://www.w3.org/2000/svg" width="100" height="100" viewBox="0 0 100 100"><path d="M71.8,25h-2a.94.94,0,0,0-1,1v4a8,8,0,0,1-7.93,8H39.1a8,8,0,0,1-7.93-8V26a.94.94,0,0,0-1-1h-2a6,6,0,0,0-5.95,6V74a6,6,0,0,0,5.95,6H71.8a6,6,0,0,0,5.95-6V31A6,6,0,0,0,71.8,25ZM43.06,66a2,2,0,0,1-2,2h-2a2,2,0,0,1-2-2V56a2,2,0,0,1,2-2h2a2,2,0,0,1,2,2ZM53,66a2,2,0,0,1-2,2H49a2,2,0,0,1-2-2V47a2,2,0,0,1,2-2h2a2,2,0,0,1,2,2Zm9.91,0a2,2,0,0,1-2,2h-2a2,2,0,0,1-2-2V51a2,2,0,0,1,2-2h2a2,2,0,0,1,2,2Z" fill="#fff" fill-rule="evenodd"/><path d="M39.1,32H60.9a2,2,0,0,0,2-2V26a6,6,0,0,0-5.95-6H43.06a6,6,0,0,0-5.95,6v4A2,2,0,0,0,39.1,32Z" fill="#fff" fill-rule="evenodd"/></svg>

<?xml version="1.0"?><svg xmlns="http://www.w3.org/2000/svg" width="100" height="100" viewBox="0 0 100 100"><title></title><path d="m71.8 25h-2a0.9 0.9 0 0 0-1 1v4a8 8 0 0 1-7.9 8h-21.8a8 8 0 0 1-7.9-8v-4a0.9 0.9 0 0 0-1-1h-2a6 6 0 0 0-6 6v43a6 6 0 0 0 6 6h43.6a6 6 0 0 0 6-6v-43a6 6 0 0 0-6-6z m-28.7 41a2 2 0 0 1-2 2h-2a2 2 0 0 1-2-2v-10a2 2 0 0 1 2-2h2a2 2 0 0 1 2 2z m9.9 0a2 2 0 0 1-2 2h-2a2 2 0 0 1-2-2v-19a2 2 0 0 1 2-2h2a2 2 0 0 1 2 2z m9.9 0a2 2 0 0 1-2 2h-2a2 2 0 0 1-2-2v-15a2 2 0 0 1 2-2h2a2 2 0 0 1 2 2z m-23.8-34h21.8a2 2 0 0 0 2-2v-4a6 6 0 0 0-5.9-6h-13.9a6 6 0 0 0-6 6v4a2 2 0 0 0 2 2z" fill="#fff" fill-rule="evenodd"></path></svg>
